assets/yubico/mono.svg

<svg viewBox="0 0 24 24" xmlns="http://www.w3.org/2000/svg"><path d="m12.356 12.388 2.521-7.138h3.64l-6.135 15.093h-3.843l1.755-4.136-4.294-10.957h3.717zm-.356-12.388c-6.619 0-12 5.381-12 12s5.381 12 12 12 12-5.381 12-12-5.381-12-12-12zm0 1.5c5.808 0 10.5 4.692 10.5 10.5s-4.692 10.5-10.5 10.5-10.5-4.692-10.5-10.5 4.692-10.5 10.5-10.5z"/></svg>

<svg xmlns="http://www.w3.org/2000/svg" viewBox="0 0 24 24"><path d="m12.356 12.388 2.521-7.138h3.64l-6.135 15.093H8.539l1.755-4.136L6 5.25h3.717zM12 0C5.381 0 0 5.381 0 12s5.381 12 12 12 12-5.381 12-12S18.619 0 12 0m0 1.5c5.808 0 10.5 4.692 10.5 10.5S17.808 22.5 12 22.5 1.5 17.808 1.5 12 6.192 1.5 12 1.5"/></svg>
